icon-svg/ai.svg

<svg xmlns="http://www.w3.org/2000/svg" fill="#44739e" viewBox="0 0 24 24"><path d="M10.946 9.753h-.017c-.085.341-.178.691-.288 1.04l-.56 1.663H11.8l-.557-1.656c-.127-.373-.212-.714-.297-1.047m9.181 3.773a3.419 3.419 0 0 0-.295-2.984q.255-1.446-.605-1.981.186-1.617-.528-2.093a1.35 1.35 0 0 0-.683-1.324 1.694 1.694 0 0 0-1.5-1.652q-.435-.972-2.18-1.029-1.616-1.017-2.595.2-.045-.318-.625-.446a3.73 3.73 0 0 0-2.5.477 2.9 2.9 0 0 1-.407.177q-1.95.891-2.041 1.911a1.674 1.674 0 0 0-.632 1.678 1.257 1.257 0 0 0-.478 1.44 1.53 1.53 0 0 0-.648 1.448 1.532 1.532 0 0 0-.32 1.159 1.536 1.536 0 0 0-.3 1.817 2.62 2.62 0 0 0 .156 1.782 3.82 3.82 0 0 0 1.012 2.742 8.1 8.1 0 0 1 .769 1.574 7.95 7.95 0 0 0 1.108 1.254q.684 1.248 1.505 1.125a1.468 1.468 0 0 0 1.713.666q1.056.815 1.453-.208.378-.535.666-.034.659 1.51 3.044.077a1.69 1.69 0 0 0 1.705-1.055 1.377 1.377 0 0 0 1.176-1.6 2.46 2.46 0 0 0 .372-.536q1.365-.352 1.5-2.258a2.169 2.169 0 0 0 .158-2.327M12.065 2.9q.854-1.116 2.065-.061l.037-.013q1.309-.452 2.179 1.038 1.023.143 1.4 1.506a.977.977 0 0 1 .519 1.159l.251.311a2.52 2.52 0 0 1 .371 1.894v.013a1.077 1.077 0 0 0-1 .294l-.278-.441a1.228 1.228 0 0 0-.891-.281V8.15A2.648 2.648 0 0 0 15 5.67a1.008 1.008 0 0 1 .735-.158c-.148-.017-.257-.179-.329-.484a.4.4 0 0 1-.173-.5q-.659-1.132-.709-.5a1.02 1.02 0 0 1 .156.674q.558.33.45.519l-.482.348a2.65 2.65 0 0 0-.574-.063h-.71q-.024-.03-.051-.06-.9-.774-.761-1.194-.069-.754.917-.951.531-.165-.1-.26-1.248.236-1.159 1.367l-.5.069a2.062 2.062 0 0 1 .355-1.577m2.435 7.117a.445.445 0 0 1-.449-.46.456.456 0 0 1 .466-.469.465.465 0 1 1-.017.929m.39.7v4.127h-.746v-4.128Zm-2.047-5.326a.19.19 0 0 0-.059.112h-.925a8.6 8.6 0 0 0-.175-.908l.484-.069q-.145.645.675.865M7.13 3.862l.209.021c.013-.08.155-.221.424-.423l.069.077L7.373 4h-.348Zm-.243.316c.155-.006.406-.012.763-.018q.037 0 .934-.882h.294a.2.2 0 1 1 0 .138h-.285l-.874.891-.935.014a8 8 0 0 1 .103-.143m-.245.354h1.5l.45-.42.274.007a.245.245 0 1 1 0 .113h-.255l-.433.441-1.612-.019c.024-.04.049-.081.076-.122m-.221.337 2.672-.008L10.8 3.2h.712c-.011.05-.02.1-.03.147h-.648L9.153 4.991l-2.8-.026Zm4.6.492h.483v.127l-.435-.006-.019.019h-.18Zm-.281-.351-.514.493h-.173l.657-.629h.709v.13zm-4.619.352 3.257-.006.05-.045q.09-.093 1-.909l.995.008v.116h-.993L9.382 5.5l-3.315-.02c.016-.037.033-.08.054-.118m-.174.487 2.873-.007c-.078.044-.153.092-.226.143l-2.675-.006c.008-.043.017-.087.028-.13m-.424 1.268a6.2 6.2 0 0 1 .607-.666h-.239v-.132l2.327-.012a2.4 2.4 0 0 0-.117.128l-1.794.015-.724.732.026 1.875q.077.068.839.763v.233l.675.632.009.934.338.336v.15l-.438-.434-.017-.971-.675-.623v-.24l-.84-.752Zm1.467 10.03v-.173h.126v.173zm.126.057v.376h-.124v-.38Zm-.137-2.626v-.164h.144v.164zm-.826-2.312v-.553l-.4-.414a.184.184 0 0 1-.1.031.131.131 0 1 1 .158-.128.12.12 0 0 1-.008.042l.412.4v.562c.687.681 1.1 1.093 1.26 1.252v.811h-.084l.008-.291h.04l.012-.427zm.75 2.148v.164h-.162v-.164Zm-.161-.141v-.291H6.9v.291zm-.052.141v.164h-.164v-.164Zm-.223.164h-.142v-.164h.141zm-.2-.6v.291h-.2v-.291h.086a2.35 2.35 0 0 0 .032-.3.143.143 0 0 1-.2-.133.144.144 0 1 1 .287 0 .146.146 0 0 1-.047.107c-.012.121-.019.275-.021.33zm-.362.881v.149h-.157v-.149h.091a.87.87 0 0 1 .227-.319v-.13h.2v.164h-.153a1.03 1.03 0 0 0-.213.285Zm-.156 1.446v-.175H5.9v.177zm.156.058v.159h-.157v-.158Zm-.156-.291v-.15H5.9v.151zm0-.208v-.141H5.9v.142zm0-.2v-.158H5.9v.159zm0-.216V15.3H5.9v.151zm0-.207v-.171H5.9v.176zm1.076-5.237v-.376A1.54 1.54 0 0 1 6 8.93l.1-.024a1.5 1.5 0 0 0 .131.187h.226v.09h-.146a1.43 1.43 0 0 0 .3.236l.006-.238H6.5V9.09h.48v.089h-.234v.308a1.43 1.43 0 0 0 .506.128v-.44h-.219v-.09h.447v.088h-.089v.443l.083-.005v1.53c-.012-.754-.019-1.123-.019-1.123h-.134v-.266h-.13v.266h-.136v.214l.281.309c.017.58.039.926.039.926l.1.1v.125c-.131-.14-.2-.206-.205-.2a3.2 3.2 0 0 0-.043-.935 3 3 0 0 1-.269-.311v-.233Zm.275-1.79a.129.129 0 1 0 0 .254h.03l.077.083a.27.27 0 0 1-.107.019.23.23 0 1 1 0-.458.248.248 0 0 1 .244.175h.127v.1h-.125a.227.227 0 0 1-.1.141l-.077-.073a.126.126 0 0 0 .076-.111.14.14 0 0 0-.145-.13m-.757-.2h-.075c-.178 0-.3.005-.356.01 0 .052-.008.1-.008.158a1.44 1.44 0 0 0 .089.5c.69-.008 1.2-.009 1.453-.009a.24.24 0 0 1 .024-.083v.21a.2.2 0 0 1-.013-.031c-.755 0-1.269.012-1.421.016.013.028.027.056.042.083l-.1.028a1.52 1.52 0 0 1-.178-.715 1.538 1.538 0 0 1 2.078-1.443 2.634 2.634 0 0 0-.405 1.274q-.732-.003-1.131.001Zm1.189 8.961v.173h-.148v-.173zm0 .231v.375h-.149V17.2Zm-.142-2.628v-.164h.08v.164zm-.052-.164v.164h-.164v-.164zm-.17 2.79h.164v.375h-.04c.049.115.1.3.143.375h.536c.019.026.038.052.058.077-.157-.006-.36-.011-.617-.012a1.47 1.47 0 0 1-.162-.436h-.083ZM4.786 9.009l.679.722v.411c.162.172.265.282.32.348.015.02.044.056.08.1.16.006.42.007.42.007a2.62 2.62 0 0 1 .377.441c.02.612.024.87.024.87.284.293.544.559.78.8v.109c-.57-.571-.868-.865-.868-.865-.023-.605-.017-.893-.017-.893-.22-.269-.335-.385-.335-.385a4.1 4.1 0 0 1-.418 0l-.011-.01-.09-.092c-.159-.165-.233-.252-.233-.252l-.146-.153.009-.394-.623-.618Zm.875 7.747h-.354v-.171h.354zm0-.447h-.354v-.174h.354zm0-.441h-.354v-.082c-.107-.013-.183-.025-.227-.034a.089.089 0 1 1-.087-.107.088.088 0 0 1 .086.069c.047.009.123.023.228.038v-.022h.354zm0-.415h-.354v-.087c-.1-.017-.165-.028-.21-.037a.1.1 0 1 1 .008-.041l.2.033V15.3h.354zm0-.441h-.354v-.149h.354Zm-.044-.639-.1-.057h-.359l-.307.354a2.7 2.7 0 0 0-.549 0l-.013-.584.06-.06a.935.935 0 0 1-.3-.736c-.028-.516.01-.828.113-.938.039-.034.011-.167-.083-.4a1 1 0 0 1 .07-.882.686.686 0 0 1 .315-.437h.007v-.007a.53.53 0 0 1 .029-.65l.346.2-.009 1.436.839.8L5.1 12.4a.279.279 0 0 0-.307-.238.246.246 0 1 0 0 .476.3.3 0 0 0 .3-.182l.593.011-.008.584h-.332a.245.245 0 0 0-.245-.162.211.211 0 1 0 0 .415.241.241 0 0 0 .249-.179h.34c-.008.43-.013.646-.012.649l-.334-.009a.273.273 0 0 0-.269-.171.23.23 0 1 0 .277.227l.334.009v.333l.311.311-.112.117zm.9 3.483a.111.111 0 0 1 .092-.109v-.167h-.083v-.331l-.053-.015v.346h-.162v-.377h.069a1.2 1.2 0 0 1-.137-.065v.009h-.182v-.138a.98.98 0 0 1-.214-.253h-.1v-.172H5.9v.163a1.8 1.8 0 0 0 .223.227h.119v.094l.067.046v-.14h.159v.173h-.101c.033.02.067.039.1.056l.053.025V17.2h.157v.377h-.026v.17a.11.11 0 1 1-.14.106zm.9 1.929v-.943h-.582a.2.2 0 0 1-.184-.182v-.212c.008-.135.066-.2.173-.181h.746a.45.45 0 0 1 .136.155 1.8 1.8 0 0 0 .323 0l.108-.1.152-.006a2.66 2.66 0 0 0 .53.393h-.245a.157.157 0 0 1-.173.121v.426h-.11l.007-.428q-.216-.027-.234-.186h-.437a.239.239 0 0 0-.1-.27h-.675c-.073-.011-.111.027-.112.115v.151a.219.219 0 0 0 .24.1 3.33 3.33 0 0 0 .549-.037c.009.585.007.93.007.93l.354-.009v-.938l.13-.018v.956l.26.009v-.273h.12v.284h.29v-.138l.39.009-.013.44-.377-.008v-.165Zm1.5 1.239a.238.238 0 1 1 0-.476.232.232 0 0 1 .156.059l-.071.073a.136.136 0 1 0 .051.106.13.13 0 0 0-.015-.062l.078-.069a.238.238 0 0 1-.2.369zm1.413.346c.073-.142.016-.205-.173-.191 0 .027-.006-.008-.026-.1.267-.041.386.063.355.311zm1-.2-1.1-1.05a.22.22 0 0 1-.058.007.213.213 0 0 1-.111-.031c.016-.02.037-.047.063-.082a.11.11 0 1 0-.061-.1.11.11 0 0 0 .024.068l-.067.078a.207.207 0 0 1-.059-.146.212.212 0 1 1 .423 0 .2.2 0 0 1-.035.116l1.07 1.054zm.147-.342a.216.216 0 0 1-.216-.216.214.214 0 0 1 .04-.125q-.27-.29-1.455-1.449c.054.006.108.01.163.012l1.354 1.378a.22.22 0 0 1 .114-.032.216.216 0 0 1 0 .432m.379-.614-.233.008.008-.588h.329a5.4 5.4 0 0 1-.116.577zm.111-7.176H9.929l-.594 1.808h-.763L10.514 9.1h.89l1.95 5.746h-.789zm6.472 4.834a.8.8 0 0 1-.485-.917q.114-1-.813-.8 1.048 1.139-.519 1.505.4.4.986-.311a2.124 2.124 0 0 0 .476.821l-.294.415a1.021 1.021 0 0 1-.969 1.229q-.116.151.017-.139c-.062-.421-.282-.629-.657-.622a.831.831 0 0 1-.9.017q-.617-.262-.743.277a2.11 2.11 0 0 1-1.315.813 1.162 1.162 0 0 0 1.47-.485q-.273-.738.865-.086 1.095-.373 1.107.484a1.885 1.885 0 0 1-1.487.865q-.3.617-1.973.658a1.214 1.214 0 0 1-1.141-1.367 1.135 1.135 0 0 0-.015-1.18h2.034a2.646 2.646 0 0 0 2.645-2.559l.024-.032-.024-.006v-1.905a1.163 1.163 0 0 0 .515-.346.95.95 0 0 1 .692-.069q.481 1.307-.64 1.211.417.441.744-.052a1.657 1.657 0 0 1 1.609.467 3.006 3.006 0 0 1-1.221 2.111zm1.314-2.336a1.409 1.409 0 0 0-1.487-.519q.426-.294.069-.917-.617-.242-.727-.553a1.88 1.88 0 0 0 .139-1.488q.276.1.346-.1-.21-.265-.485.052a2.285 2.285 0 0 1-.346 1.643 2.21 2.21 0 0 1-.532.584v-3.585a1.443 1.443 0 0 1 1.055.239.921.921 0 0 0-.934-.38l.087-.415c-.069.076-.138.15-.208.22V9.145a1.36 1.36 0 0 0 .29-.48l.554.017q.106 0 .311.45c.988-.859.583.374 1.052-.215l-.043-.117c.029.013.057.028.085.043L19 8.821v-.009c.143.006.25.147.323.424a2.936 2.936 0 0 1 .138 1.557q.726.63 0 1.194l.415.086a3.276 3.276 0 0 1-.121 1.557 2.021 2.021 0 0 1-.014 1.903z"/></svg>

<?xml version="1.0" encoding="UTF-8"?>
<svg width="24px" fill="#44739e" height="24px" viewBox="0 0 24 24" version="1.1" xmlns="http://www.w3.org/2000/svg" xmlns:xlink="http://www.w3.org/1999/xlink">
            <path d="m 10.946,9.753 h -0.017 c -0.085,0.341 -0.178,0.691 -0.288,1.04 l -0.56,1.663 H 11.8 L 11.243,10.8 C 11.116,10.427 11.031,10.086 10.946,9.753 Z m 9.181,3.773 A 3.419,3.419 0 0 0 19.832,10.542 Q 20.087,9.096 19.227,8.561 19.413,6.944 18.699,6.468 A 1.35,1.35 0 0 0 18.016,5.144 1.694,1.694 0 0 0 16.516,3.492 Q 16.081,2.52 14.336,2.463 12.72,1.446 11.741,2.663 11.696,2.345 11.116,2.217 A 3.731,3.731 0 0 0 8.616,2.694 2.921,2.921 0 0 1 8.209,2.871 Q 6.259,3.762 6.168,4.782 A 1.674,1.674 0 0 0 5.536,6.46 1.257,1.257 0 0 0 5.058,7.9 1.53,1.53 0 0 0 4.41,9.348 a 1.532,1.532 0 0 0 -0.32,1.159 1.536,1.536 0 0 0 -0.3,1.817 2.619,2.619 0 0 0 0.156,1.782 3.82,3.82 0 0 0 1.012,2.742 8.1,8.1 0 0 1 0.769,1.574 7.948,7.948 0 0 0 1.108,1.254 q 0.684,1.248 1.505,1.125 a 1.468,1.468 0 0 0 1.713,0.666 q 1.056,0.815 1.453,-0.208 0.378,-0.535 0.666,-0.034 0.659,1.51 3.044,0.077 a 1.69,1.69 0 0 0 1.705,-1.055 1.377,1.377 0 0 0 1.176,-1.6 2.462,2.462 0 0 0 0.372,-0.536 q 1.365,-0.352 1.5,-2.258 a 2.169,2.169 0 0 0 0.158,-2.327 z M 12.065,2.9 Q 12.919,1.784 14.13,2.839 l 0.037,-0.013 q 1.309,-0.452 2.179,1.038 1.023,0.143 1.4,1.506 a 0.977,0.977 0 0 1 0.519,1.159 l 0.251,0.311 a 2.52,2.52 0 0 1 0.371,1.894 v 0.013 a 1.077,1.077 0 0 0 -1,0.294 L 17.609,8.6 A 1.228,1.228 0 0 0 16.718,8.319 V 8.15 A 2.648,2.648 0 0 0 15,5.67 1.008,1.008 0 0 1 15.735,5.512 C 15.587,5.495 15.478,5.333 15.406,5.028 a 0.4,0.4 0 0 1 -0.173,-0.5 q -0.659,-1.132 -0.709,-0.5 a 1.02,1.02 0 0 1 0.156,0.674 q 0.558,0.33 0.45,0.519 L 14.648,5.569 A 2.65,2.65 0 0 0 14.074,5.506 h -0.71 Q 13.34,5.476 13.313,5.446 12.413,4.672 12.552,4.252 12.483,3.498 13.469,3.301 14,3.136 13.369,3.041 12.121,3.277 12.21,4.408 l -0.5,0.069 A 2.062,2.062 0 0 1 12.065,2.9 Z M 14.5,10.017 A 0.445,0.445 0 0 1 14.051,9.557 0.456,0.456 0 0 1 14.517,9.088 0.465,0.465 0 1 1 14.5,10.017 Z m 0.39,0.7 v 4.127 H 14.144 V 10.716 Z M 12.843,5.391 A 0.191,0.191 0 0 0 12.784,5.503 H 11.859 A 8.571,8.571 0 0 0 11.684,4.595 l 0.484,-0.069 q -0.145,0.645 0.675,0.865 z M 7.13,3.862 7.339,3.883 C 7.352,3.803 7.494,3.662 7.763,3.46 L 7.832,3.537 7.373,4 H 7.025 Z M 6.887,4.178 C 7.042,4.172 7.293,4.166 7.65,4.16 q 0.037,0 0.934,-0.882 h 0.294 a 0.2,0.2 0 1 1 0,0.138 H 8.593 L 7.719,4.307 6.784,4.321 C 6.817,4.274 6.851,4.227 6.887,4.178 Z M 6.642,4.532 h 1.5 l 0.45,-0.42 0.274,0.007 a 0.245,0.245 0 1 1 0,0.113 H 8.611 L 8.178,4.673 6.566,4.654 C 6.59,4.614 6.615,4.573 6.642,4.532 Z M 6.421,4.869 9.093,4.861 10.8,3.2 h 0.712 c -0.011,0.05 -0.02,0.1 -0.03,0.147 H 10.834 L 9.153,4.991 6.353,4.965 Z m 4.6,0.492 h 0.483 V 5.488 L 11.069,5.482 11.05,5.501 H 10.87 Z M 10.74,5.01 10.226,5.503 h -0.11 -0.063 L 10.71,4.874 h 0.709 c 0,0.047 0,0.09 0,0.13 z M 6.121,5.362 9.378,5.356 9.428,5.311 q 0.09,-0.093 1,-0.909 L 11.423,4.41 V 4.526 H 10.43 L 9.382,5.5 6.067,5.48 C 6.083,5.443 6.1,5.4 6.121,5.362 Z M 5.947,5.849 8.82,5.842 C 8.742,5.886 8.667,5.934 8.594,5.985 L 5.919,5.979 C 5.927,5.936 5.936,5.892 5.947,5.849 Z M 5.523,7.117 A 6.232,6.232 0 0 1 6.13,6.451 H 5.891 V 6.319 L 8.218,6.307 C 8.177,6.348 8.139,6.391 8.101,6.435 L 6.307,6.45 5.583,7.182 5.609,9.057 Q 5.686,9.125 6.448,9.82 v 0.233 l 0.675,0.632 0.009,0.934 0.338,0.336 v 0.15 L 7.032,11.671 7.015,10.7 6.34,10.077 V 9.837 L 5.5,9.085 Z m 1.467,10.03 v -0.173 h 0.126 v 0.173 z m 0.126,0.057 V 17.58 H 6.992 V 17.2 Z M 6.979,14.578 v -0.164 h 0.144 v 0.164 z M 6.153,12.266 v -0.553 l -0.4,-0.414 a 0.184,0.184 0 0 1 -0.1,0.031 0.131,0.131 0 1 1 0.158,-0.128 0.116,0.116 0 0 1 -0.008,0.042 l 0.412,0.4 v 0.562 c 0.687,0.681 1.1,1.093 1.26,1.252 v 0.811 H 7.391 l 0.008,-0.291 h 0.04 l 0.012,-0.427 z m 0.75,2.148 v 0.164 H 6.741 V 14.414 Z M 6.742,14.273 V 13.982 H 6.9 v 0.291 z M 6.69,14.414 v 0.164 H 6.526 V 14.414 Z M 6.467,14.578 H 6.325 v -0.164 h 0.141 z m -0.2,-0.6 v 0.291 h -0.2 v -0.291 h 0.086 a 2.35,2.35 0 0 0 0.032,-0.3 0.143,0.143 0 0 1 -0.2,-0.133 0.144,0.144 0 1 1 0.287,0 0.146,0.146 0 0 1 -0.047,0.107 c -0.012,0.121 -0.019,0.275 -0.021,0.33 z m -0.362,0.881 v 0.149 H 5.748 V 14.859 H 5.839 A 0.868,0.868 0 0 1 6.066,14.54 v -0.13 h 0.2 v 0.164 H 6.113 A 1.027,1.027 0 0 0 5.9,14.859 Z M 5.749,16.305 V 16.13 H 5.9 v 0.177 z m 0.156,0.058 v 0.159 H 5.748 V 16.364 Z M 5.749,16.072 v -0.15 H 5.9 v 0.151 z m 0,-0.208 V 15.723 H 5.9 v 0.142 z m 0,-0.2 V 15.506 H 5.9 v 0.159 z m 0,-0.216 V 15.3 H 5.9 v 0.151 z m 0,-0.207 V 15.07 H 5.9 v 0.176 z M 6.825,10.004 V 9.628 A 1.541,1.541 0 0 1 6,8.93 L 6.1,8.906 a 1.528,1.528 0 0 0 0.131,0.187 h 0.226 v 0.09 H 6.311 a 1.427,1.427 0 0 0 0.3,0.236 L 6.617,9.181 H 6.5 V 9.09 H 6.98 V 9.179 H 6.746 V 9.487 A 1.429,1.429 0 0 0 7.252,9.615 V 9.175 H 7.033 V 9.085 H 7.48 V 9.173 H 7.391 V 9.616 L 7.474,9.611 v 1.53 C 7.462,10.387 7.455,10.018 7.455,10.018 H 7.321 V 9.752 h -0.13 v 0.266 H 7.055 v 0.214 l 0.281,0.309 c 0.017,0.58 0.039,0.926 0.039,0.926 l 0.1,0.1 v 0.125 c -0.131,-0.14 -0.2,-0.206 -0.205,-0.2 A 3.205,3.205 0 0 0 7.227,10.557 3.03,3.03 0 0 1 6.958,10.246 V 10.013 Z M 7.1,8.214 a 0.129,0.129 0 1 0 0,0.254 H 7.13 L 7.207,8.551 A 0.272,0.272 0 0 1 7.1,8.57 0.23,0.23 0 1 1 7.1,8.112 0.248,0.248 0 0 1 7.344,8.287 h 0.127 v 0.1 H 7.346 a 0.227,0.227 0 0 1 -0.1,0.141 L 7.169,8.455 A 0.126,0.126 0 0 0 7.245,8.344 0.14,0.14 0 0 0 7.1,8.214 Z M 6.343,8.014 H 6.268 c -0.178,0 -0.3,0.005 -0.356,0.01 0,0.052 -0.008,0.1 -0.008,0.158 a 1.435,1.435 0 0 0 0.089,0.5 C 6.683,8.674 7.193,8.673 7.446,8.673 A 0.24,0.24 0 0 1 7.47,8.59 V 8.8 A 0.2,0.2 0 0 1 7.457,8.769 c -0.755,0 -1.269,0.012 -1.421,0.016 0.013,0.028 0.027,0.056 0.042,0.083 l -0.1,0.028 A 1.522,1.522 0 0 1 5.8,8.181 1.538,1.538 0 0 1 7.878,6.738 2.634,2.634 0 0 0 7.473,8.012 Q 6.741,8.009 6.342,8.013 Z m 1.189,8.961 v 0.173 H 7.384 v -0.173 z m 0,0.231 v 0.375 H 7.383 V 17.2 Z M 7.39,14.578 v -0.164 h 0.08 v 0.164 z M 7.338,14.414 v 0.164 H 7.174 v -0.164 z m -0.17,2.79 h 0.164 v 0.375 h -0.04 c 0.049,0.115 0.1,0.3 0.143,0.375 H 7.971 C 7.99,17.98 8.009,18.006 8.029,18.031 7.872,18.025 7.669,18.02 7.412,18.019 A 1.466,1.466 0 0 1 7.25,17.583 H 7.167 Z M 4.786,9.009 5.465,9.731 c 0,0.3 0,0.442 0,0.411 0.162,0.172 0.265,0.282 0.32,0.348 0.015,0.02 0.044,0.056 0.08,0.1 0.16,0.006 0.42,0.007 0.42,0.007 a 2.619,2.619 0 0 1 0.377,0.441 c 0.02,0.612 0.024,0.87 0.024,0.87 0.284,0.293 0.544,0.559 0.78,0.8 v 0.109 C 6.896,12.246 6.598,11.952 6.598,11.952 6.575,11.347 6.581,11.059 6.581,11.059 6.361,10.79 6.246,10.674 6.246,10.674 a 4.133,4.133 0 0 1 -0.418,0 L 5.817,10.664 5.727,10.572 C 5.568,10.407 5.494,10.32 5.494,10.32 L 5.348,10.167 5.357,9.773 4.734,9.155 Z m 0.875,7.747 H 5.307 v -0.171 h 0.354 z m 0,-0.447 H 5.307 v -0.174 h 0.354 z m 0,-0.441 H 5.307 V 15.786 C 5.2,15.773 5.124,15.761 5.08,15.752 a 0.089,0.089 0 1 1 -0.087,-0.107 0.088,0.088 0 0 1 0.086,0.069 c 0.047,0.009 0.123,0.023 0.228,0.038 V 15.73 h 0.354 z m 0,-0.415 H 5.307 v -0.087 c -0.1,-0.017 -0.165,-0.028 -0.21,-0.037 a 0.1,0.1 0 1 1 0.008,-0.041 v 0 l 0.2,0.033 V 15.3 h 0.354 z m 0,-0.441 H 5.307 V 14.863 H 5.661 Z M 5.617,14.373 5.517,14.316 H 5.158 L 4.851,14.67 a 2.684,2.684 0 0 0 -0.549,0 l -0.013,-0.584 0.06,-0.06 a 0.935,0.935 0 0 1 -0.3,-0.736 c -0.028,-0.516 0.01,-0.828 0.113,-0.938 0.039,-0.034 0.011,-0.167 -0.083,-0.4 A 1,1 0 0 1 4.149,11.07 0.686,0.686 0 0 1 4.464,10.633 H 4.471 V 10.626 A 0.53,0.53 0 0 1 4.5,9.976 l 0.346,0.2 -0.009,1.436 0.839,0.8 L 5.1,12.4 v 0 a 0.279,0.279 0 0 0 -0.307,-0.238 0.246,0.246 0 1 0 0,0.476 0.3,0.3 0 0 0 0.3,-0.182 l 0.593,0.011 -0.008,0.584 H 5.346 a 0.245,0.245 0 0 0 -0.245,-0.162 0.211,0.211 0 1 0 0,0.415 0.241,0.241 0 0 0 0.249,-0.179 h 0.34 c -0.008,0.43 -0.013,0.646 -0.012,0.649 L 5.344,13.765 a 0.273,0.273 0 0 0 -0.269,-0.171 0.23,0.23 0 1 0 0.277,0.227 l 0.334,0.009 v 0.333 l 0.311,0.311 -0.112,0.117 z m 0.9,3.483 A 0.111,0.111 0 0 1 6.609,17.747 V 17.58 H 6.526 V 17.249 L 6.473,17.234 V 17.58 H 6.311 V 17.203 H 6.38 A 1.222,1.222 0 0 1 6.243,17.138 v 0.009 H 6.061 V 17.009 A 0.981,0.981 0 0 1 5.847,16.756 h -0.1 V 16.584 H 5.9 v 0.163 a 1.775,1.775 0 0 0 0.223,0.227 h 0.119 v 0.094 l 0.067,0.046 v -0.14 h 0.159 v 0.173 H 6.367 c 0.033,0.02 0.067,0.039 0.1,0.056 v 0 0 L 6.52,17.228 V 17.2 h 0.157 v 0.377 H 6.651 c 0,0.089 0,0.144 0,0.17 a 0.11,0.11 0 1 1 -0.14,0.106 z m 0.9,1.929 V 19.733 18.842 H 6.835 A 0.2,0.2 0 0 1 6.651,18.66 v -0.212 c 0.008,-0.135 0.066,-0.2 0.173,-0.181 H 7.57 a 0.448,0.448 0 0 1 0.136,0.155 1.813,1.813 0 0 0 0.323,0 l 0.108,-0.1 0.152,-0.006 a 2.659,2.659 0 0 0 0.53,0.393 H 8.574 A 0.157,0.157 0 0 1 8.401,18.83 v 0.426 H 8.291 L 8.298,18.828 Q 8.082,18.801 8.064,18.642 H 7.627 a 0.239,0.239 0 0 0 -0.1,-0.27 H 6.852 C 6.779,18.361 6.741,18.399 6.74,18.487 v 0.151 a 0.219,0.219 0 0 0 0.24,0.1 3.333,3.333 0 0 0 0.549,-0.037 c 0.009,0.585 0.007,0.93 0.007,0.93 L 7.89,19.622 v -0.938 l 0.13,-0.018 v 0.956 l 0.26,0.009 V 19.358 H 8.4 v 0.284 H 8.69 V 19.504 L 9.08,19.513 9.067,19.953 8.69,19.945 V 19.78 Z m 1.5,1.239 a 0.238,0.238 0 1 1 0,-0.476 0.232,0.232 0 0 1 0.156,0.059 L 9.002,20.68 a 0.136,0.136 0 1 0 0.051,0.106 0.132,0.132 0 0 0 -0.015,-0.062 l 0.078,-0.069 a 0.238,0.238 0 0 1 -0.2,0.369 z m 1.413,0.346 c 0.073,-0.142 0.016,-0.205 -0.173,-0.191 0,0.027 -0.006,-0.008 -0.026,-0.1 0.267,-0.041 0.386,0.063 0.355,0.311 z m 1,-0.2 -1.1,-1.05 a 0.22,0.22 0 0 1 -0.058,0.007 0.213,0.213 0 0 1 -0.111,-0.031 c 0.016,-0.02 0.037,-0.047 0.063,-0.082 a 0.11,0.11 0 1 0 -0.061,-0.1 0.11,0.11 0 0 0 0.024,0.068 L 10.02,20.06 a 0.207,0.207 0 0 1 -0.059,-0.146 0.212,0.212 0 1 1 0.423,0 0.2,0.2 0 0 1 -0.035,0.116 l 1.07,1.054 z m 0.147,-0.342 a 0.216,0.216 0 0 1 -0.216,-0.216 0.214,0.214 0 0 1 0.04,-0.125 q -0.27,-0.29 -1.455,-1.449 c 0.054,0.006 0.108,0.01 0.163,0.012 l 1.354,1.378 a 0.219,0.219 0 0 1 0.114,-0.032 0.216,0.216 0 0 1 0,0.432 z m 0.379,-0.614 -0.233,0.008 0.008,-0.588 h 0.329 a 5.4,5.4 0 0 1 -0.116,0.577 z m 0.111,-7.176 H 9.929 L 9.335,14.846 H 8.572 L 10.514,9.1 h 0.89 l 1.95,5.746 h -0.789 z m 6.472,4.834 a 0.8,0.8 0 0 1 -0.485,-0.917 q 0.114,-1 -0.813,-0.8 1.048,1.139 -0.519,1.505 0.4,0.4 0.986,-0.311 a 2.124,2.124 0 0 0 0.476,0.821 l -0.294,0.415 a 1.021,1.021 0 0 1 -0.969,1.229 q -0.116,0.151 0.017,-0.139 c -0.062,-0.421 -0.282,-0.629 -0.657,-0.622 a 0.831,0.831 0 0 1 -0.9,0.017 q -0.617,-0.262 -0.743,0.277 a 2.109,2.109 0 0 1 -1.315,0.813 1.162,1.162 0 0 0 1.47,-0.485 q -0.273,-0.738 0.865,-0.086 1.095,-0.373 1.107,0.484 a 1.885,1.885 0 0 1 -1.487,0.865 q -0.3,0.617 -1.973,0.658 a 1.214,1.214 0 0 1 -1.141,-1.367 1.135,1.135 0 0 0 -0.015,-1.18 h 2.034 a 2.646,2.646 0 0 0 2.645,-2.559 l 0.024,-0.032 -0.024,-0.006 c 0,-0.016 0,-0.033 0,-0.049 v -1.856 a 1.163,1.163 0 0 0 0.515,-0.346 0.95,0.95 0 0 1 0.692,-0.069 q 0.481,1.307 -0.64,1.211 0.417,0.441 0.744,-0.052 a 1.657,1.657 0 0 1 1.609,0.467 3.006,3.006 0 0 1 -1.221,2.111 z m 1.314,-2.336 a 1.409,1.409 0 0 0 -1.487,-0.519 q 0.426,-0.294 0.069,-0.917 -0.617,-0.242 -0.727,-0.553 a 1.88,1.88 0 0 0 0.139,-1.488 q 0.276,0.1 0.346,-0.1 -0.21,-0.265 -0.485,0.052 a 2.285,2.285 0 0 1 -0.346,1.643 2.208,2.208 0 0 1 -0.532,0.584 v -3.585 a 1.443,1.443 0 0 1 1.055,0.239 0.921,0.921 0 0 0 -0.934,-0.38 l 0.087,-0.415 c -0.069,0.076 -0.138,0.15 -0.208,0.22 V 9.145 a 1.358,1.358 0 0 0 0.29,-0.48 l 0.554,0.017 q 0.106,0 0.311,0.45 c 0.988,-0.859 0.583,0.374 1.052,-0.215 L 18.894,8.8 c 0.029,0.013 0.057,0.028 0.085,0.043 L 19,8.821 V 8.812 c 0.143,0.006 0.25,0.147 0.323,0.424 a 2.936,2.936 0 0 1 0.138,1.557 q 0.726,0.63 0,1.194 l 0.415,0.086 a 3.276,3.276 0 0 1 -0.121,1.557 2.021,2.021 0 0 1 -0.014,1.903 z"/>

</svg>
